assets/googlecloudstorage/original.svg

<svg viewBox="0 0 24 24" xmlns="http://www.w3.org/2000/svg" fill="#AECBFA"><path d="m24 2.4v8.4h-2.4v-8.4zm-24 8.4h2.4v-8.4h-2.4zm3-8.4h18v8.4h-18zm12.6 4.2a1.8 1.8 0 1 0 3.6 0 1.8 1.8 0 0 0 -3.6 0zm-10.8.6h7.2v-1.2h-7.2zm16.8 14.4h2.4v-8.4h-2.4zm-21.6 0h2.4v-8.4h-2.4zm3-8.4h18v8.4h-18zm12.6 4.2a1.8 1.8 0 1 0 3.6 0 1.8 1.8 0 0 0 -3.6 0zm-10.8.6h7.2v-1.2h-7.2z"/></svg>

<svg xmlns="http://www.w3.org/2000/svg" fill="#aecbfa" viewBox="0 0 24 24"><path d="M24 2.4v8.4h-2.4V2.4zM0 10.8h2.4V2.4H0zm3-8.4h18v8.4H3zm12.6 4.2a1.8 1.8 0 1 0 3.6 0 1.8 1.8 0 0 0-3.6 0m-10.8.6H12V6H4.8zm16.8 14.4H24v-8.4h-2.4zM0 21.6h2.4v-8.4H0zm3-8.4h18v8.4H3zm12.6 4.2a1.8 1.8 0 1 0 3.6 0 1.8 1.8 0 0 0-3.6 0M4.8 18H12v-1.2H4.8z"/></svg>
